X:126
T: Zerdrck die Trne nicht in deinem Auge (2-6), S. 13
N: K1100
O: Luxemburg
S: KINTZELE, Guillaume: An der Ucht, Bd. 2, Luxemburg 1927]
N: in der Quelle mit einer 2. Stimme versehen
R: Werbung]
M: 4/4
L: 1/8
K: G
DGA | B3BddcB | d2c2z
cBc | D3cBcEF | G4z
DGA | B3BddcB | d2c2z
cBc | D3cBcEF | G4z
AAA | A3ABAGE | D4z
BAB | A3AAAB^c | d4z
DGA | B3BddcB | A2e2z
cBc | D3cBcEF | G4z
AAA | A3ABAGE | D4z
BAB | A3AAAB^c | d4z
DGA | B3BddcB | A2e2z
cBc | D3cBcEF | G4z

@@@ Tune index: 8180
